X: 1
T: Mouse Behind The Dresser, The
M: 4/4
L: 1/8
R: reel
K: Gmaj
ge|dBAB ~G3 D|EGDG EGDB|dBAB ~G3 D|EGAc BGGB|
dBAB ~G3 D|EGDG EGDB|dBAB ~G3 D|EGAc BGGB|
d ~B3 dBeB|d ~B3 dege|d ~B3 degd|egdB A3 B|
d ~B3 dBeB|d ~B3 degd|egdB A2 GE|DEGA Bdge|dBAB G4||
